src/24/panel/simplescreenrecorder-paused.svg

<svg xmlns="http://www.w3.org/2000/svg" width="24" height="24" version="1">
 <defs>
  <style id="current-color-scheme" type="text/css">
   .ColorScheme-Text { color:#dfdfdf; } .ColorScheme-Highlight { color:#4285f4; }
  </style>
 </defs>
 <path style="fill:currentColor" class="ColorScheme-Text" d="M 4.1816406,6 C 3.5269406,6 3,6.5344188 3,7.1992188 L 3,16.800781 C 3,17.465781 3.5269406,18 4.1816406,18 L 15.818359,18 C 16.473359,18 17,17.465781 17,16.800781 L 17,14 l 5,2 0,-8 -5,2 0,-2.8007812 C 17,6.5344187 16.473359,6 15.818359,6 L 4.1816406,6 Z M 6,9 9,9 9,15 6,15 6,9 Z m 5,0 3,0 0,6 -3,0 0,-6 z"/>
</svg>

<svg xmlns="http://www.w3.org/2000/svg" width="24" height="24" version="1"><defs><style id="current-color-scheme" type="text/css"></style></defs><path d="M4.182 6C3.527 6 3 6.534 3 7.2v9.6c0 .666.527 1.2 1.182 1.2h11.636c.655 0 1.182-.534 1.182-1.2V14l5 2V8l-5 2V7.2c0-.666-.527-1.2-1.182-1.2H4.182zM6 9h3v6H6V9zm5 0h3v6h-3V9z" fill="currentColor" color="#323232"/></svg>
